X: 45
T:Crossing the Minch
% Nottingham Music Database
S:Trad via Lesley Dolman
M:4/4
L:1/8
R:Hornpipe
K:D
de|"D"fA A2/3A2/3A2/3 f2ef|"G"gB B2/3B2/3B2/3 g2ag|"D"fA A2/3A2/3A2/3 f2ef|"Em"gBed "A7"dcde|
"D"fA A2/3A2/3A2/3 f2ef|"G"gB B2/3B2/3B2/3 g2ag|"D"fgaf "A7"gecd|e2d2 d2:|
Ad|"D"fA A2/3A2/3A2/3 fgaf|"G"gB B2/3B2/3B2/3 gabg|"D"fA A2/3A2/3A2/3 fgaf|"Em"gBed "A7"dcde|
"D"fA A2/3A2/3A2/3 fgaf|"G"gB B2/3B2/3B2/3 g2ag|"D"fgaf "A7"gecd|e2d2 d2:|




